assets/icons/icon_bodylight.svg

<svg xmlns="http://www.w3.org/2000/svg" width="30" height="30" fill="none" viewBox="0 0 30 30"><path stroke="#fff" stroke-linecap="round" stroke-width="1.705" d="M1.202 20.805h2.066M2.33 16.297l1.788 1.033M2.33 25.219l1.788-1.033M28.912 20.805h-2.066M27.783 25.312l-1.789-1.033M27.783 16.391l-1.789 1.033"/><path fill="#fff" d="M23.74 24.186H6.837v2.253H23.74z"/><path stroke="#fff" stroke-width="1.705" d="M21.486 6.155h3.381c.622 0 1.127.505 1.127 1.127v5.07c0 .329-.143.64-.391.854l-3.587 3.091M22.472 21.932H8.19l1.813-14.51.054-.432-.25-.357-1.924-2.732h12.453z"/></svg>

<svg width="30" height="30" fill="none" viewBox="0 0 30 30"><path stroke="#fff" stroke-linecap="round" stroke-width="1.71" d="M1.2 20.8h2.07m-.94-4.5 1.79 1.03m-1.79 7.89 1.79-1.03m24.8-3.39h-2.07m.93 4.51L26 24.28m1.8-7.89L26 17.42"/><path fill="#fff" d="M23.74 24.19H6.84v2.25h16.9z"/><path stroke="#fff" stroke-width="1.71" d="M21.49 6.16h3.38c.62 0 1.12.5 1.12 1.12v5.07q0 .51-.39.86l-3.58 3.09m.45 5.63H8.2L10 7.43l.06-.44-.25-.36L7.88 3.9h12.46z"/></svg>
